X:29
T: Voici le menton
R:---
M: 3/4
L: 1/4
K: G
V: 1
G/B/ d/g/ d|G/B/ d/g/ d|
w: Voi-ci le men-ton, voi-ci ton p'tit nez,
d/d/ e d|c A|c/c/ d c|B G|
w: Pe-tits doigts qui dan-sent, Pe-tits doigts qui dan-sent,
G/B/ d/g/ d|G/B/ d/g/ d|
w: Voi-ci le men-ton, voi-ci ton p'tit nez,
d/d/ e d|c A|c/c/ B A|G2|]
w: Pe-tits doigts qui dan-sent, Pe-tits doigts dan-sez!

%%footer $D   Galouvielle-MBe 2006 \n--- (--)
